polaris-icons/icons/new-icons/CreditCardMajor.svg

<svg width="20" height="20" viewBox="0 0 20 20" fill="none" xmlns="http://www.w3.org/2000/svg">
<path d="M6.25 11.25C5.83579 11.25 5.5 11.5858 5.5 12C5.5 12.4142 5.83579 12.75 6.25 12.75H9C9.41421 12.75 9.75 12.4142 9.75 12C9.75 11.5858 9.41421 11.25 9 11.25H6.25Z" fill="#4A4A4A"/>
<path fill-rule="evenodd" clip-rule="evenodd" d="M2.5 7.25C2.5 5.73122 3.73122 4.5 5.25 4.5H14.75C16.2688 4.5 17.5 5.73122 17.5 7.25V12.75C17.5 14.2688 16.2688 15.5 14.75 15.5H5.25C3.73122 15.5 2.5 14.2688 2.5 12.75V7.25ZM14.75 6C15.4404 6 16 6.55964 16 7.25L4 7.25C4 6.55964 4.55964 6 5.25 6H14.75ZM16 9.25H4V12.75C4 13.4404 4.55964 14 5.25 14H14.75C15.4404 14 16 13.4404 16 12.75V9.25Z" fill="#4A4A4A"/>
</svg>

<svg viewBox="0 0 20 20" xmlns="http://www.w3.org/2000/svg"><path d="M6.25 11.25a.75.75 0 0 0 0 1.5h2.75a.75.75 0 0 0 0-1.5h-2.75Z" fill="#5C5F62"/><path fill-rule="evenodd" d="M2.5 7.25a2.75 2.75 0 0 1 2.75-2.75h9.5a2.75 2.75 0 0 1 2.75 2.75v5.5a2.75 2.75 0 0 1-2.75 2.75h-9.5a2.75 2.75 0 0 1-2.75-2.75v-5.5Zm12.25-1.25c.69 0 1.25.56 1.25 1.25h-12c0-.69.56-1.25 1.25-1.25h9.5Zm1.25 3.25h-12v3.5c0 .69.56 1.25 1.25 1.25h9.5c.69 0 1.25-.56 1.25-1.25v-3.5Z" fill="#5C5F62"/></svg>
